X:1
T:Title
%%score { ( 1 3 ) | 2 }
L:1/8
M:4/4
K:Eb
V:1 treble nm="Grand Piano"
V:3 treble 
V:2 bass 
V:1
 z4 z2[Q:1/4=110] E>F | G2 E2 A2 G2 | [CF]2 C4 E2 | z2 A,2 A,2 [Dc]2 | B6 z2 | G2 E2 A2 G2 | %6
 F2 B4 d2 | c6 z2 | [DB]2 [Ec]2 [Fd]4 | e2 d2 c2 [EG]2 | [GA]>[FA] [CA]>[GA] [FA]4 | %11
 [Ad]2 [Ac]2 [GB]2 [FA]2 | G>_G =G>c B4 | E>F G>E F2 B,2 | E>F G>c B4 | e2 c2 B2 (3BAG | %16
[M:7/8] G2 [DF]2 E3 |] %17
V:2
 z4 z2 [E,G,]>[E,A,E] | [E,B,E]2 [E,G,]2 [E,CE]2 [E,B,E]2 | [A,,A,]2 [A,,F,A,]4 z2 | %3
 z2 [B,,F,]2 [B,,F,]2 [B,,A,]2 | [E,G,E]2 [E,G,]2 [E,G,]2 [E,G,]>[E,A,E] | %5
 [E,B,E]2 [E,G,]2 [E,CE]2 [E,B,E]2 | [F,B,D]2 [F,DF]4 [F,B,F]2 | %7
 [G,B,=E]2 [C,B,]2 [F,=A,]2 [F,A,_E]2 | [B,,B,]2 [B,,=A,]2 [B,,_A,]4 | %9
 [E,G,E]2 [E,G,E]2 [G,B,E]2 [C,C]2 | [F,C]>[F,C] [F,A,]>[F,C] [F,C]4 | %11
 [B,,B,]2 [B,,B,]2 [C,B,]2 [D,B,]2 | [E,B,E]>[E,=A,E] [E,B,E]>[E,_A,E] [E,G,E]4 | %13
 E,>F, G,>E, F,2 B,,2 | [E,G,]>[E,A,E] [E,B,E]>[E,A,E] [E,G,E]4 | %15
 [G,B,E]2 [A,E]2 [G,B,E]2 [A,CF]2 |[M:7/8] [B,E]2[K:bass] [B,,A,]2 [E,G,]3 |] %17
V:3
 x8 | x8 | x8 | D6 z2 | z2 E2 E2 E>F | x8 | x8 | z2 =E2 _E2 d2 | x8 | x8 | x8 | x8 | x8 | x8 | x8 | %15
 x8 |[M:7/8] x7 |] %17

